!!!OTL: 194. Sher
!!!Genre:	Sher
!!!Mode:	Minor
!!!Listening/dance:	dance
!!!One_Mode:	no
**kern
*I"P1
*clefG2
*k[b-e-]
*g:
*M2/4
*>A
8g
=1
4.b-
8g
=2
4.dd
8g
=3
8ee-L
8dd
8cc
8b-J
=4
8cc
4dd
8g
=5
4.b-
8g
=6
4gg
8ffL
8ee-J
*>A1
=7
8.ddL
16ccJk
8b-L
8ccJ
=8
8ddL
8b-
(16qqa/LL
16qqb-/JJ
8a)
8gJ
*>A2
=9:|!
8ddL
8cc
8b-
8aJ
=10
4g
4r
=11!|:
*>bM
*B-:
*>B
!LO:TX:a:i:t=Bb-major
16ddLL
16ee-
16dd
16ee-JJ
8ffL
8ee-J
=12
8ddL
8gg
8.ff
16ee-Jk
=13
8ddL
8ee-
8.ff
16ee-Jk
=14
8ddL
8ccJ
4b-
=15
16fLL
16b-
16b-
16ddJJ
8.ffL
16ee-Jk
=16
8ddL
8gg
8.ff
16ee-Jk
=17
8ddL
8ee-
8ff
8ee-J
=18
8ddL
8cc
8b-
8aJ
*>eM
*g:
!LO:TX:a:i:t=G-minor
=19
4.g
8b-
=20
4.dd
8g
=21
8ee-L
8dd
8cc
8b-J
=22
8cc
4dd
8g
=23
4b-
8aL
8gJ
=24
4gg
8ffL
8ee-J
=25
8.ddL
16cck
8b-
8ccJ
=26
8ddL
8b-
(16qqa/LL
16qqb-/JJ
8a)
8gJ
=27
4.b-
8cc
=28
4.dd
8g
=29
8ee-L
8dd
8cc
8b-J
=30
8cc
(4dd
8g)
=31
4b-
8aL
8gJ
=32
4gg
8ffL
8ee-J
=33
8.ddL
16cck
8b-
8aJ
=34
2g
=:|!
*-
